static/images/principles/middle-line.svg

<svg width="5" height="1027" viewBox="0 0 5 1027" fill="none" xmlns="http://www.w3.org/2000/svg">
<path opacity="0.23" d="M4.99635 976.643C5.02633 977.867 4.8642 979.594 4.85566 981.038C4.81817 987.087 4.70578 989.329 4.64204 994.801C4.54736 1002.92 4.76045 1027 3.63408 1027C3.63405 1027 3.63402 1027 3.63399 1027C3.62295 1027 3.61178 1027 3.60047 1026.99C3.38589 1026.91 3.15163 1024.86 2.90894 1024.56C2.66617 1024.25 1.09886 1024.48 1.01075 1021.57C0.894632 1017.35 1.2965 1007.23 1.27869 1004.98C1.26642 1003.45 1.12393 1001.55 1.09864 999.585C1.0171 993.243 1.12129 989.925 0.734254 984.212C0.938213 981.926 1.14217 979.641 1.34613 977.356C1.25156 974.374 1.52055 969.855 1.50574 968.043C1.49355 966.557 1.33227 965.686 1.32477 964.137C1.31545 962.4 1.48954 959.732 1.46332 956.572C1.42114 951.392 1.00039 950.47 0.94696 947.362C0.891668 944.139 1.12035 939.126 0.972289 935.013C0.926004 934.497 0.879719 933.982 0.833434 933.466C0.728758 933.835 0.624083 934.205 0.519407 934.574C0.47068 932.503 0.685201 931.612 0.689085 929.709C0.693772 927.469 0.490393 926.326 0.491331 924.819C0.492278 923.585 0.655356 921.911 0.645139 920.31C0.631079 917.977 0.395615 918.487 0.351559 917.231C0.334446 916.73 0.204505 907.466 0.202633 906.943C0.193348 902.968 0.515638 902.622 0.54382 899.452C0.620683 890.661 0.360259 881.637 0.261836 873.505C0.217805 869.874 0.236534 866.086 0.28808 862.465C1.11292 868.168 1.75486 855.548 0.464167 860.267C0.647784 856.239 0.299358 853.383 0.35827 849.564C0.396702 847.094 0.575665 845.385 0.570978 841.858C0.56152 835.6 0.0528133 828.755 0.972284 826.955C0.810193 819.609 1.14372 813.246 0.332024 810.599C0.282438 808.704 0.765918 803.85 0.831597 801.725C0.893462 799.716 1.11177 784.299 1.12396 781.776C1.13614 779.254 1.14939 774.839 1.07818 772.715C0.990066 770.046 0.148273 768.181 1.1325 763.43C1.05286 757.905 1.08102 755.937 1.19537 750.799C1.21604 749.869 1.36217 749.764 1.3623 749.22C1.3623 748.101 1.25431 746.196 1.24114 744.198C1.21958 740.911 1.52704 739.036 1.05742 739.402C0.978689 737.236 0.899954 735.07 0.821218 732.903C0.911855 732.143 1.00249 731.383 1.09313 730.623C0.994355 729.464 0.895579 728.306 0.796804 727.148C1.47637 728.508 1.07534 720.356 0.685414 723.003C0.825998 718.803 0.966583 714.603 1.10717 710.404C1.87951 710.99 1.1963 701.182 0.776356 702.008C0.776966 701.527 0.777576 701.047 0.778187 700.566C0.983468 696.359 0.815566 692.496 0.953357 687.367C1.09114 682.24 1.16635 682.721 1.5216 681.162C1.50125 679.955 1.48091 678.749 1.46056 677.542C0.48665 671.21 2.17284 672.329 1.42577 661.487C2.03786 658.023 1.71635 649.484 1.53075 643.822C1.50919 643.164 1.39038 643.152 1.35375 642.275C1.26564 640.13 1.41837 634.656 1.03514 634.843C1.14602 632.948 1.2569 631.053 1.36778 629.158C1.2981 627.609 1.22842 626.061 1.15874 624.512C1.03911 624.52 0.91948 624.527 0.799851 624.535C1.20757 621.417 1.05088 616.516 1.14836 614.099C1.16812 613.618 1.33315 613.514 1.37816 612.018C1.43159 610.271 1.38276 607.014 1.43431 604.931C1.25151 604.121 1.06871 603.312 0.88591 602.502C0.78676 598.778 1.26926 597.469 1.30675 595.282C1.31326 594.888 1.2786 587.704 1.2683 587.317C1.18664 584.148 0.775588 585.046 0.863631 575.881C0.87956 574.25 1.02179 572.93 1.02751 571.454C1.03782 568.849 0.715237 560.997 0.417157 560.379C0.790225 557.219 0.63773 548.762 0.745526 546.271C0.778667 545.52 1.0163 545.35 1.06688 543.039C1.10812 541.166 0.917846 536.342 0.949689 533.966C0.984366 531.444 1.18399 530.544 1.1981 529.414C1.21122 528.346 1.05007 527.362 1.05101 525.907C1.05663 521.366 1.31601 517.254 1.32078 513.664C1.32828 508.474 0.851166 503.888 0.639323 499.545C0.670255 498.467 0.772663 497.408 0.7736 496.278C0.788603 482.296 0.87651 466.524 0.978677 452.501C1.0256 445.991 1.67323 429.802 0.592628 434.123C0.403382 431.861 0.839057 415.411 0.845618 412.282C0.852116 409.154 0.658352 406.674 0.655493 404.216C0.647056 396.796 0.78668 391.571 0.617955 382.539C0.573844 380.206 0.344288 377.707 0.346958 376.326C0.350707 374.662 0.572722 372.871 0.586827 370.715C0.618694 365.577 0.545665 356.002 0.584079 351.072C0.591578 350.172 0.786518 349.856 0.847446 348.569C1.08552 343.556 1.06487 337.937 0.442477 338.931C0.795825 332.506 0.473511 326.562 0.453767 320.608C0.41346 308.018 0.558733 285.084 0.29721 274.117C0.132228 267.201 -0.146915 267.378 0.0939615 257.196C0.147383 254.936 0.219438 252.686 0.283171 249.944C0.433145 243.519 0.948833 237.624 0.327421 232.726C0.488586 225.589 0.374292 219.906 0.905729 214.611C0.778267 213.986 0.650805 213.362 0.523343 212.738C0.520189 211.863 0.517036 210.988 0.513882 210.113C0.635444 209.84 0.757006 209.567 0.878568 209.294C0.911303 203.026 0.411665 195.074 0.415309 189.768C0.420933 180.873 0.615041 157.961 0.779078 149.526C0.866187 145.048 0.60583 144.807 1.14102 142.243C1.10379 141.241 1.06655 140.24 1.02932 139.238C0.912135 138.611 0.794947 137.984 0.677759 137.357C0.673072 131.612 0.855098 124.798 0.853235 119.324C0.849485 109.351 0.526956 94.3742 0.738792 84.3588C0.792212 81.8475 1.03388 78.7083 1.03115 76.2491C1.0274 72.6699 0.626356 71.8 0.618857 67.258C0.606671 59.4299 1.07257 44.8512 1.03695 37.4521C1.02663 35.2545 0.877406 34.2292 0.861471 32.7117C0.793043 26.3487 0.805195 21.1247 0.574604 15.0233C0.95892 8.47202 1.45498 9.03797 1.95553 7.00768C2.33331 5.46901 3.20883 0.750942 3.5397 0.0811858C3.77215 -0.389277 4.07118 1.36728 4.32705 0.708018C4.53139 8.55703 4.30644 11.8545 3.9465 18.228C3.96084 29.9981 3.97519 41.7682 3.98953 53.5382C3.84986 54.6091 3.71019 55.6799 3.57052 56.7507C3.57022 56.7507 3.56991 56.7507 3.56961 56.7507C3.40842 61.2709 3.76811 63.1866 3.84976 65.6243C4.63152 88.9623 4.01966 134.897 3.93155 160.589C3.91281 166.126 4.10102 184.136 3.87418 187.935C3.8151 188.919 3.59974 189.192 3.59037 190.239C3.71844 199.588 3.84651 208.936 3.97458 218.285C3.63995 237.51 3.91632 257.386 3.96787 276.757C4.10754 329.168 4.2773 381.055 4.22575 432.607C4.21544 442.57 4.3768 455.214 4.27275 464.967C4.22961 469.038 3.88376 470.734 4.14153 476.082C4.04835 476.138 3.95517 476.194 3.86199 476.25C3.97448 480.917 4.1865 483.9 4.20806 489.132C4.22586 493.538 4.2397 505.195 4.20409 509.089C4.18628 511.108 4.01217 510.356 4.01305 512.238C4.01586 515.462 4.25657 522.349 4.25658 526.797C4.25658 530.826 4.05601 537.618 4.08507 540.716C4.18818 551.872 4.48549 564.024 4.40581 575.913C4.38327 579.197 4.15751 583.421 4.16381 584.449C4.17693 586.458 4.39624 587.057 4.42443 588.406C4.5669 595.261 4.30629 605.946 4.29595 612.665C4.26221 634.558 4.35793 657.752 4.31762 679.552C4.29232 693.324 4.33091 716.211 4.16595 728.927C4.13033 731.668 3.89007 730.937 3.89007 733.24C3.89012 735.793 4.05243 737.175 4.06555 738.368C4.15741 746.626 4.32148 764.856 4.15558 772.652C4.12372 774.137 3.93547 775.214 3.93616 776.103C3.93616 776.553 4.06463 777.57 4.07776 778.983C4.19399 791.458 4.11907 800.553 4.07501 812.777C3.9916 836.188 4.2306 863.314 4.10126 887.907C4.07314 893.265 3.70078 896.94 3.70453 897.693C3.71204 899.347 3.96249 900.405 4.02436 903.754C4.2277 914.888 3.96045 929.884 4.08601 940.475C4.14786 945.707 4.46579 952.897 4.53614 958.045C4.59238 962.158 4.46766 971.87 4.60725 973.693C4.69158 974.802 4.96244 975.315 4.99635 976.643ZM0.780024 838.101C1.21308 838.834 0.853186 831.134 0.620721 834.023C0.568379 834.673 0.66761 837.912 0.780024 838.101ZM1.53196 477.567C1.40826 477.637 1.28457 477.708 1.16087 477.778C1.21234 478.789 1.26381 479.8 1.31529 480.811C1.38965 480.243 1.46401 479.674 1.53837 479.106C1.53624 478.593 1.5341 478.08 1.53196 477.567Z" fill="black"/>
</svg>

<svg xmlns="http://www.w3.org/2000/svg" width="5" height="1027" fill="none" viewBox="0 0 5 1027"><path fill="#000" d="M4.996 976.643c.03 1.224-.132 2.951-.14 4.395-.038 6.049-.15 8.291-.214 13.763-.095 8.119.118 32.199-1.008 32.199-.011 0-.022 0-.034-.01-.214-.08-.448-2.13-.691-2.43-.243-.31-1.81-.08-1.898-2.99-.116-4.22.286-14.34.268-16.59-.013-1.53-.155-3.43-.18-5.395-.082-6.342.022-9.66-.365-15.373l.612-6.856c-.094-2.982.175-7.501.16-9.313-.012-1.486-.174-2.357-.181-3.906-.01-1.737.165-4.405.138-7.565-.042-5.18-.463-6.102-.516-9.21-.055-3.223.173-8.236.025-12.349l-.139-1.547-.314 1.108c-.048-2.071.166-2.962.17-4.865.005-2.24-.199-3.383-.198-4.89.001-1.234.164-2.908.154-4.509-.014-2.333-.25-1.823-.293-3.079-.018-.501-.147-9.765-.15-10.288-.009-3.975.314-4.321.342-7.491.077-8.791-.184-17.815-.282-25.947-.044-3.631-.025-7.419.026-11.04.825 5.703 1.467-6.917.176-2.198.184-4.028-.165-6.884-.106-10.703.039-2.47.218-4.179.213-7.706-.01-6.258-.518-13.103.401-14.903-.162-7.346.172-13.709-.64-16.356-.05-1.895.434-6.749.5-8.874.061-2.009.28-17.426.292-19.949.012-2.522.025-6.937-.046-9.061-.088-2.669-.93-4.534.054-9.285-.08-5.525-.051-7.493.063-12.631.021-.93.167-1.035.167-1.579 0-1.119-.108-3.024-.12-5.022-.022-3.287.285-5.162-.185-4.796l-.236-6.499.272-2.28-.296-3.475c.68 1.36.278-6.792-.112-4.145l.422-12.599c.773.586.09-9.222-.33-8.396l.001-1.442c.205-4.207.038-8.07.175-13.199.138-5.127.213-4.646.569-6.205l-.061-3.62c-.974-6.332.712-5.213-.035-16.055.612-3.464.29-12.003.105-17.665-.022-.658-.14-.67-.177-1.547-.088-2.145.064-7.619-.319-7.432l.333-5.685-.21-4.646-.358.023c.408-3.118.25-8.019.348-10.436.02-.481.185-.585.23-2.081.054-1.747.005-5.004.056-7.087l-.548-2.429c-.1-3.724.383-5.033.42-7.22.007-.394-.027-7.578-.038-7.965-.081-3.169-.492-2.271-.404-11.436.016-1.631.158-2.951.164-4.427.01-2.605-.313-10.457-.61-11.075.372-3.16.22-11.617.328-14.108.033-.751.27-.921.32-3.232.042-1.873-.148-6.697-.116-9.073.034-2.522.234-3.422.248-4.552.013-1.068-.148-2.052-.147-3.507.006-4.541.265-8.653.27-12.243.007-5.19-.47-9.776-.682-14.119.031-1.078.134-2.137.135-3.267.015-13.982.103-29.754.205-43.777.047-6.51.694-22.699-.386-18.378-.19-2.262.246-18.712.253-21.841.006-3.128-.188-5.608-.19-8.066-.009-7.42.13-12.645-.038-21.677-.044-2.333-.274-4.832-.271-6.213.004-1.664.226-3.455.24-5.611.032-5.138-.041-14.713-.003-19.643.008-.9.203-1.216.263-2.503.239-5.013.218-10.632-.405-9.638.354-6.425.032-12.369.012-18.323-.04-12.59.105-35.524-.157-46.491-.165-6.916-.444-6.739-.203-16.921.053-2.26.125-4.51.19-7.252.15-6.425.665-12.32.043-17.218.162-7.137.047-12.82.579-18.115l-.383-1.873-.01-2.625.366-.819c.032-6.268-.467-14.22-.464-19.526.006-8.895.2-31.807.364-40.242.087-4.478-.173-4.719.362-7.283l-.112-3.005-.351-1.881c-.005-5.745.177-12.559.175-18.033C.85 109.351.527 94.374.74 84.359c.053-2.511.295-5.65.292-8.11C1.027 72.67.626 71.8.62 67.258c-.012-7.828.454-22.407.418-29.806-.01-2.197-.16-3.223-.176-4.74C.793 26.349.805 21.125.575 15.023c.384-6.551.88-5.985 1.38-8.015C2.334 5.469 3.21.75 3.54.08c.232-.47.531 1.286.787.627.204 7.849-.02 11.147-.38 17.52l.043 35.31-.42 3.213c-.162 4.52.198 6.436.28 8.873.782 23.338.17 69.273.082 94.965-.02 5.537.169 23.547-.058 27.346-.059.984-.274 1.257-.284 2.304l.385 28.046c-.335 19.225-.059 39.101-.007 58.472.14 52.411.31 104.298.258 155.85-.01 9.963.15 22.607.047 32.36-.043 4.071-.39 5.767-.131 11.115l-.28.168c.112 4.667.324 7.65.346 12.882.018 4.406.032 16.063-.004 19.957-.018 2.019-.192 1.267-.19 3.149.002 3.224.243 10.111.243 14.559 0 4.029-.201 10.821-.172 13.919.103 11.156.4 23.308.32 35.197-.022 3.284-.247 7.508-.241 8.536.013 2.009.232 2.608.26 3.957.143 6.855-.118 17.54-.128 24.259-.034 21.893.062 45.087.022 66.887-.026 13.772.013 36.659-.152 49.375-.036 2.741-.276 2.01-.276 4.313 0 2.553.162 3.935.176 5.128.091 8.258.255 26.488.09 34.284-.032 1.485-.22 2.562-.22 3.451 0 .45.129 1.467.142 2.88.116 12.475.041 21.57-.003 33.794-.083 23.411.156 50.537.026 75.13-.028 5.358-.4 9.033-.396 9.786.007 1.654.257 2.712.32 6.061.203 11.134-.065 26.13.061 36.721.062 5.232.38 12.422.45 17.57.056 4.113-.068 13.825.071 15.648.085 1.109.355 1.622.39 2.95M.78 838.101c.433.733.073-6.967-.16-4.078-.052.65.048 3.889.16 4.078m.752-360.534-.371.211.154 3.033.223-1.705z" opacity=".23"/></svg>
